assets/icons/header/forum-active.svg

<svg preserveAspectRatio="none" width="100%" height="100%" overflow="visible" style="display: block;" viewBox="0 0 24 24" fill="none" xmlns="http://www.w3.org/2000/svg">
<g id="chat_bubble">
<mask id="mask0_0_117" style="mask-type:alpha" maskUnits="userSpaceOnUse" x="0" y="0" width="24" height="24">
<rect id="Bounding box" width="24" height="24" fill="var(--fill-0, #D9D9D9)"/>
</mask>
<g mask="url(#mask0_0_117)">
<path id="chat_bubble_2" d="M6.0385 17.5L4.0365 19.5018C3.752 19.7864 3.42475 19.8509 3.05475 19.6952C2.68492 19.5394 2.5 19.2589 2.5 18.8537V4.30775C2.5 3.80258 2.675 3.375 3.025 3.025C3.375 2.675 3.80258 2.5 4.30775 2.5H19.6923C20.1974 2.5 20.625 2.675 20.975 3.025C21.325 3.375 21.5 3.80258 21.5 4.30775V15.6923C21.5 16.1974 21.325 16.625 20.975 16.975C20.625 17.325 20.1974 17.5 19.6923 17.5H6.0385Z" fill="var(--fill-0, #2B619E)"/>
</g>
</g>
</svg>

<svg xmlns="http://www.w3.org/2000/svg" fill="none" overflow="visible" preserveAspectRatio="none" style="display:block" viewBox="0 0 24 24"><mask id="a" width="24" height="24" x="0" y="0" maskUnits="userSpaceOnUse" style="mask-type:alpha"><path fill="var(--fill-0, #d9d9d9)" d="M0 0h24v24H0z"/></mask><g mask="url(#a)"><path fill="var(--fill-0, #2b619e)" d="m6.039 17.5-2.002 2.002q-.427.427-.982.193t-.555-.841V4.308q0-.758.525-1.283T4.308 2.5h15.384q.758 0 1.283.525t.525 1.283v11.384q0 .758-.525 1.283t-1.283.525z"/></g></svg>
